!!!COM: Webern, Anton : von
!!!LYR: Stefan George
!!!OPS: Opus 2
!!!OTL: "Entflieht auf leichten Kaehnen"
!!!XEN: ?
!!!YEC: Copyright 1995, David Huron & Brian Alegant
!!!YEM: This data is the property of David Huron and Brian Alegant, and is
!!!YEM: available by license only.  Refer to accompanying license agreement.
!!!YEM: This data may not be copied or translated to another format except in
!!!YEM: accordance with the license agreement.
!! Zart bewegt
**kern	**kern	**kern	**kern
*ICvox	*ICvox	*ICvox	*ICvox
*Ibass	*Itenor	*Icalto	*Isoprn
*clefF4	*clefF4	*clefG2	*clefG2
*M6/8	*M6/8	*M6/8	*M6/8
*MM56	*MM56	*MM56	*MM56
*k[f#]	*k[f#]	*k[f#]	*k[f#]
*X:	*X:	*X:	*X:
!! pp
8r	8r	8B	8d
=1	=1	=1	=1
4.r	4.r	4c	4e
.	.	8B	8d
4r	4r	4e	4g#
8D	8B	8fn	8a
=2	=2	=2	=2
4E	4cn	8fn	8a
.	.	8f#	8a#
8D	8B	8g	8b
!! Zeit lassen - - - -
4G#	4en	(8b-	(8dd
.	.	8cc)	8een)
8A	8fn	8a	8cc#
=3	=3	=3	=3
8Fn	8An	8an	4ee
8F#	8A#	8g	.
8G	8Bn	8f	8dd
8B-	8d	8g#	8dd-
8cn	8en	8an	8cc
8A	8c#	8gn	8b-
=4	=4	=4	=4
(8A	4e	4gn	4b-
8G)	.	.	.
8F#	8d	8g#	8bn
8G#	8d-	4an	4ffn
8A	8c	.	.
8G	8B-	8fn	8dd-
!! Rehearsal marking `1'
*>1	*>1	*>1	*>1
=5	=5	=5	=5
4G	4B-	(8en	(8ccn
.	.	8e-)	8bn)
8G#	8Bn	8d	8b-
4A	4fn	8d	8b-
.	.	8g	8bn
8Fn	8d-	8a	8cc#
=6	=6	=6	=6
!! mf
(8En	(8cn	4b-	4ff#
8E-)	8Bn)	.	.
8D	8B-	8g-	8ddn
8D	8B-	4fn	4cc#
8G	8Bn	.	.
8A	8c#	8e-	8bn
=7	=7	=7	=7
!! poco rit.  -  -  -  -  -
4B-	4f#	8d	8dd
.	.	8d	8a
8F#	8d	8d	8b-
4Fn	4c#	(8en	(8a-
.	.	8e-)	8gn)
8E-	8Bn	8e-	8g-
=8	=8	=8	=8
8D	8d	(8An	(8fn
8D	8An	8c)	8e-)
8D	8B-	8dn	8dn
(8En	(8A-	4.r	8r
8E-)	8Gn)	.	4ddn
8E-	8G-	.	.
=9	=9	=9	=9
*MM36	*MM36	*MM36	*MM36
(8AAn	(8Fn	8r	(8ddn
8C)	8E-)	[4g-	8ccn)
8Dn	8Dn	.	8b-
!! uebergehend   -  -  -  -
4.r	4.r	8g-]	8r
.	.	8fn	[4bn
.	.	8gn	.
!! Rehearsal marking `2'
*>2	*>2	*>2	*>2
=10	=10	=10	=10
8r	4.r	4e-	8b]
[4G-	.	.	8b-
.	.	8d	8ccn
8G-]	8r	(8cn	4a-
8Fn	[4Bn	8dn)	.
8Gn	.	8en	8gn
*MM40	*MM40	*MM40	*MM40
=11	=11	=11	=11
4E-	8B]	16r	(8f#
.	.	16cn	.
.	8B-	16c#	8gn)
.	.	16dn	.
8Dn	8cn	(16fn	8a
.	.	[16e-	.
!! hervortretend
(8Cn	4A-	16e-])	16r
.	.	16dn	16fn
8Dn)	.	16cn	16f#
.	.	16Bn	16gn
8En	8Gn	16r	(16b-
.	.	16c	[16a-
=12	=12	=12	=12
16r	(8F#	16d	16a-]
16Cn	.	16en	16gn
16C#	8Gn)	(16bn	16fn
16Dn	.	8ccn)	16en
(16Fn	8A	.	16r
!! p
[16E-	.	16bn	16fn
16E-])	16r	(16ddn	16f#
16Dn	16Fn	16ccn)	16g#
16Cn	16F#	16an	(16een
16BBn	16Gn	16dn'	8ffn)
16r	(16B-	16c#'	.
16C	[16A-	16f#'	16een
=13	=13	=13	=13
!! Zeit lassen  -  -  -
16Dn	16A-])	16r	(16ggn
16En	16Gn	(8bn	16ffn)
(16Bn	16Fn	.	16ddn
8cn)	16En	8b-)	16gn'
.	16r	.	16f#'
16Bn	16Fn	16e-	16bn'
(16dn	16F#	8dn~	16r
!! poco rit. (bis Tempo I.)
!! p
16cn)	16G#	.	(8een
16An	(16en	8gn~	.
16Dn'	8fn)	.	8ee-)
16C#'	.	16r	.
16F#'	16en	16ccn	16a-
=14	=14	=14	=14
16r	(16gn	16bn	8gn~
(8Bn	16fn)	16cc#	.
.	16dn	(8een	8ccn~
8B-)	16Gn'	.	.
.	16F#'	16ddn)	16r
!! pp
*MM30	*MM30	*MM30	*MM30
16E-	16Bn'	16dd-	16fn
8Dn~	16r	16dd-	16f
.	(8en	16ccn	16f#
8Gn~	.	16r	(8an
.	8e-)	16B-	.
16r	.	16cn	16gn)
16Bn	16A-	16c#	16g-
!! Rehearsal marking `3'
*>3	*>3	*>3	*>3
=15	=15	=15	=15
16B	8Gn~	4an	16g-
16c#	.	.	16fn
*MM28	*MM28	*MM28	*MM28
(8en	8cn~	.	16r
.	.	.	16en
16dn)	16r	8b-	16fn
16d-	16Fn	.	16f#
16d-	16F	(8an	4dd#
16cn	16F#	.	.
16r	(8An	8b-)	.
16BB-	.	.	.
16Cn	16Gn)	8a	8ee
16C#	16G-	.	.
=16	=16	=16	=16
*MM27	*MM27	*MM27	*MM27
4An	16G-	4r	(8ddn
.	16Fn	.	.
.	16r	.	8ee-)
.	16En	.	.
!! ppp
8B-	16Fn	8a-~	8dd
.	16F#	.	.
(8An	4dd#	4gn~	4r
8B-)	.	.	.
8A-	8en	8ccn~	16r
.	.	.	16g-'
=17	=17	=17	=17
*MM26	*MM26	*MM26	*MM26
2.r	4.d	4.r	8fn'
.	.	.	8bn'
.	.	.	8r
.	8e-	4r	4r
.	4r	.	.
!! Tempo I.
!! ppp
*MM56	*MM56	*MM56	*MM56
.	.	8Bn	8dn
=18	=18	=18	=18
4.r	4.r	4c	4en
.	.	8B	8dn
4r	4r	4e	4g#
8D	8Bn	8fn	8an
=19	=19	=19	=19
4En	4cn	(8fn	(8a
.	.	8f#)	8a#)
8D	8B	8g	8bn
!! Zeit lassen  -  -  -  -  -
4G#	4en	8b-	8dd
.	.	8cc	8een
8An	8fn	8a	8cc#
!! Rehearsal marking `4'
*>4	*>4	*>4	*>4
=20	=20	=20	=20
(8Fn	(8An	(8an	4een
8F#)	8A#)	8gn)	.
8Gn	8Bn	8f#	8ddn
8B-	8dn	8g#	8dd-
8cn	8en	8an	8ccn
!! pp
8A	8c#	8gn	8b-
=21	=21	=21	=21
(8An	4en	(8g	(8b-
8Gn)	.	8g#)	8bn)
8f#	8dn	8an	8cc
8G#	8d-	(8bn	(8ee-
8An	8cn	8a)	8ffn)
8Gn	8B-	8b-	8dd
=22	=22	=22	=22
(8Gn	(8B-	8a-	8fn
8G#)	8Bn)	8gn	8een
!! rit.  -  -  -  -
8A	8cn	8f#	8ddn
(8Bn	(8e-	4a	4cc#
8An)	8fn)	.	.
8B-	8d	8fn	8ddn
!! gehaltener
!! p
=23	=23	=23	=23
*MM40	*MM40	*MM40	*MM40
*M9/8	*M9/8	*M9/8	*M9/8
(8A-	(8fn	4ccn	4aan
8G)	8en)	.	.
8F#	8dn	8b	8dd
4.r	4.r	8a#	8cc#
.	.	8g#	8bn
.	.	8f#	8b-
8B-	8c#	4g#	4een
8A-	8Bn	.	.
8G-	8B-	8en	8ccn
=24	=24	=24	=24
!! pp
4A-	4en	8e-	8bn
.	.	8dn	8b-
8Cn	8e	8cn	8an
(8E-	(8Bn	4gn	4dd#
8Dn)	8B-)	.	.
8Fn	8An	8e-	8bn
!! ppp
8En	8cn	8r	8r
8Dn	8B-	8fn	8an
8Cn	8A-	8f#	8a#
!! Rehearsal marking `5'
*>5	*>5	*>5	*>5
!! langsam
=25	=25	=25	=25
*MM30	*MM30	*MM30	*MM30
*M6/8	*M6/8	*M6/8	*M6/8
8GG 8D	8d	4b-	4ff#
4GG 4D	4d	.	.
.	.	8g-	8ddn
8r	8r	4fn	4cc#
8GG 8Fn	8An	.	.
8GG 8Gn	8Bn	8e-	8bn
=26	=26	=26	=26
4GG 4B-	4f#	4.r	4.r
!! poco rit.   -  -  -
!! ppp
8GG 8G-	8dn	.	.
4GG 4Fn	4c#	8r	8r
.	.	8d	8f#
8GG 8E-	8Bn	8e-	8g
=27	=27	=27	=27
*MM26	*MM26	*MM26	*MM26
8FF# 8F#	4B-	4d	4b-
4GG# 4En	.	.	.
.	8B-	8d	8g-
!! wie ein Hauch
(8AAn 8Fn	8r	8r	8r
8BB- 8F#	(8A	(8d-	(8fn
8Cn 8G#)	8G#)	8cn)	8en)
=28	=28	=28	=28
4.GG; 4.D;	4.Bn;	4.Bn;	4.D;
4.r	4.r	4.r	4.r
==	==	==	==
*-	*-	*-	*-
!!!ODE: 
!!!CDT: 1893/12/3-1945/9/15
!!!CNT: Oesterreicher
!!!AFR: atonal?
!!!AST: atonal
!!!AGN: choral
!!!AMT: compound duple
!!!AIN: vox
!!!ODT: 
!!!EED: Brian Alegant
!!!ENC: David Huron
!!!EEV: 1.0
!!!RDT: 1995 July 12
!!!YED: 1995 September 15
!!!EFL: 1/2
!!!YEN: Canada
!!!EST: Missing: stem directions, beaming, text, dynamic markings.
!!!VTS: 161877531
